X:1
T:The Centenary (Arthur Kearney)
L:1/8
Q:1/4=140
M:4/4
K:D
"D""^The Centenary (Arthur Kearney)" A z A>B AF ED |"Bm" f2 f>d"A" ed B/c/d/B/ |"D" A2 A>B AF ED |"G" E2 E>F"A" E2 DF |
"D" A2 A>B AF ED |"Bm" f2 f>d"A" ed B/c/d/B/ |"D" A2 d>e"G" fe"A" dc |"D" d2 d>c d2 Ad |
"D" f3 a Ad fa |"G" g2 f2"A" e2 f>g |"Bm7" af dA FA GF |"G" E2 E>F"A" E2 F>G |
"D" AD FA dA de |"Bm" fa gf"A" ed cB |"D" Aa ^ga"G" =ge"A" ce |"D" d2 d>c d2 z2 |:
